Yaru++/apps/scalable/avant-window-navigator.svg

<svg height="256" width="256" xmlns="http://www.w3.org/2000/svg" xmlns:xlink="http://www.w3.org/1999/xlink">
  <filter id="filter957" color-interpolation-filters="sRGB" height="1.032" width="1.019" x="-.01" y="-.02">
    <feGaussianBlur stdDeviation=".911"/>
  </filter>
  <filter id="filter971" color-interpolation-filters="sRGB" height="1.128" width="1.077" x="-.04" y="-.06">
    <feGaussianBlur stdDeviation="3.645"/>
  </filter>
  <g transform="translate(0 -2)">
    <g fill-rule="evenodd">
      <path d="m23.005859 51.541016c-2.970815 0-5.408203 2.75678-5.408203 6.115234v10.173828c0 3.358454 2.437388 6.115234 5.408203 6.115234h93.181641c2.97081.000001 5.41016-2.75678 5.41016-6.115234v-10.173828c0-3.358454-2.43935-6.115234-5.41016-6.115234zm26.214844 32.478515c-5.34567 0-9.742187 4.396519-9.742187 9.742188v6.546871h-8.279297c-7.484871 0-13.601563 6.25407-13.601563 13.90821v59.875c0 7.65415 6.116692 13.9082 13.601563 13.9082h200.796871c7.48488 0 13.60157-6.25405 13.60157-13.9082v-59.875c0-7.65414-6.11669-13.90821-13.60157-13.90821h-138.517574v-6.546871c0-5.345669-4.39847-9.742188-9.744141-9.742188z" fill="#0f0f0f" filter="url(#filter971)" opacity=".1" transform="translate(0 2)"/>
      <path d="m23.005859 51.541016c-2.970815 0-5.408203 2.75678-5.408203 6.115234v10.173828c0 3.358454 2.437388 6.115234 5.408203 6.115234h93.181641c2.97081.000001 5.41016-2.75678 5.41016-6.115234v-10.173828c0-3.358454-2.43935-6.115234-5.41016-6.115234zm26.214844 32.478515c-5.34567 0-9.742187 4.396519-9.742187 9.742188v6.546871h-8.279297c-7.484871 0-13.601563 6.25407-13.601563 13.90821v59.875c0 7.65415 6.116692 13.9082 13.601563 13.9082h200.796871c7.48488 0 13.60157-6.25405 13.60157-13.9082v-59.875c0-7.65414-6.11669-13.90821-13.60157-13.90821h-138.517574v-6.546871c0-5.345669-4.39847-9.742188-9.744141-9.742188z" fill="#0f0f0f" filter="url(#filter957)" opacity=".1" transform="translate(0 2)"/>
      <path d="m23.005859 51.541016c-2.970815 0-5.408203 2.75678-5.408203 6.115234v10.173828c0 3.358454 2.437388 6.115234 5.408203 6.115234h93.181641c2.97081.000001 5.41016-2.75678 5.41016-6.115234v-10.173828c0-3.358454-2.43935-6.115234-5.41016-6.115234zm26.214844 32.478515c-5.34567 0-9.742187 4.396519-9.742187 9.742188v6.546871h-8.279297c-7.484871 0-13.601563 6.25407-13.601563 13.90821v59.875c0 7.65415 6.116692 13.9082 13.601563 13.9082h200.796871c7.48488 0 13.60157-6.25405 13.60157-13.9082v-59.875c0-7.65414-6.11669-13.90821-13.60157-13.90821h-138.517574v-6.546871c0-5.345669-4.39847-9.742188-9.744141-9.742188z" fill="#0f0f0f" opacity=".1" transform="translate(0 2)"/>
      <path d="m230.23516 103.75296c7.35356 0 13.36182 6.00827 13.36182 13.36182v57.5234c0 7.35356-6.00826 13.36182-13.36182 13.36182h-197.274306c-7.353557 0-13.363876-6.00826-13.363876-13.36182v-57.5234c0-7.35355 6.010319-13.36182 13.363876-13.36182z" fill="#1a7fd4"/>
      <path d="m113.91485 54.985633c2.84205 0 5.17451 2.332458 5.17451 5.17451v8.609757c0 2.842053-2.33246 5.17451-5.17451 5.17451h-89.14334c-2.842052 0-5.17451-2.332457-5.17451-5.17451v-8.609757c0-2.842052 2.332458-5.17451 5.17451-5.17451z" fill="#1a7fd4"/>
      <path d="m41.652344 59.335938-14.716797.003906v.027344a3.69284 2.8361989 0 0 0 -3.246094 2.810546 3.69284 2.8361989 0 0 0 3.246094 2.814454v.017578h.289062a3.69284 2.8361989 0 0 0 .158203.005859 3.69284 2.8361989 0 0 0 .197266-.005859l14.072266-.001954zm6.404297.169921a3.69284 2.8531822 0 0 0 -.13086.003907c-.00017.000067-.011279.000008-.011719 0a3.69284 2.8531822 0 0 0 -.21875.011718v-.007812c-.0283.0016-.179407.015595-.179687.015625-.000029.000003-.058611.011788-.087891.017578-.01621.0031-.029281.003612-.050781.007813a3.69284 2.8531822 0 0 0 -3.013672 2.804687 3.69284 2.8531822 0 0 0 3.230469 2.828125c.000127.000086-.000137.009766 0 .009766.07559.0069.099042.006812.121094.007812.08819.0042.0873.003606.105468.003906.036341.0006.064106-.000277.103516 0 .02149.00015.06721-.000203.09375 0a3.69284 2.8531822 0 0 0 .039063.003907 3.69284 2.8531822 0 0 0 .042968 0c.05533.00038.091825-.000256.164063 0 5.276327.01584 56.991578-.003907 61.195308-.003907v-5.699218c-4.22053 0-56.028311.017323-61.17773.001953-.03678-.00011-.050041.00018-.082031 0a3.69284 2.8531822 0 0 0 -.142578-.00586z" fill="#faf8f6" transform="translate(0 2)"/>
      <path d="m23.931641 61.175781a3.69284 2.8361989 0 0 0 -.242188 1.001953 3.69284 2.8361989 0 0 0 3.246094 2.814454v.017578h.289062a3.69284 2.8361989 0 0 0 .158203.005859 3.69284 2.8361989 0 0 0 .197266-.005859l14.072266-.001954v-2l-14.072266.001954a3.69284 2.8361989 0 0 1 -.197266.005859 3.69284 2.8361989 0 0 1 -.158203-.005859h-.289062v-.017578a3.69284 2.8361989 0 0 1 -3.003906-1.816407zm20.669921.181641a3.69284 2.8531822 0 0 0 -.238281 1.001953 3.69284 2.8531822 0 0 0 3.230469 2.828125c.000127.000086-.000137.009766 0 .009766.07559.0069.099042.006812.121094.007812.08819.0042.0873.003606.105468.003906.036342.0006.064106-.000277.103516 0 .02149.00015.06721-.000203.09375 0a3.69284 2.8531822 0 0 0 .039063.003907 3.69284 2.8531822 0 0 0 .042968 0c.05533.00038.091825-.000256.164063 0 5.276327.01584 56.991578-.003907 61.195308-.003907v-2c-4.20373 0-55.918981.019747-61.195308.003907-.072233-.000256-.108733.00038-.164063 0a3.69284 2.8531822 0 0 1 -.042968 0 3.69284 2.8531822 0 0 1 -.039063-.003907c-.02654-.000203-.07226.00015-.09375 0-.039406-.000277-.067175.0006-.103516 0-.018168-.0003-.017278.000294-.105468-.003906-.022054-.001-.045504-.000912-.121094-.007812-.000137 0 .000127-.00968 0-.009766a3.69284 2.8531822 0 0 1 -2.992188-1.830078z" fill="#130909" opacity=".2" transform="translate(0 2)"/>
      <path d="m19.597656 64.769531v2c0 2.842053 2.331776 5.175781 5.173828 5.175781h89.142576c2.84205 0 5.17578-2.333728 5.17578-5.175781v-2c0 2.842053-2.33373 5.175781-5.17578 5.175781h-89.142576c-2.842052 0-5.173828-2.333728-5.173828-5.175781zm0 105.869139v2c0 7.35356 6.009724 13.36133 13.363282 13.36133h197.273442c7.35355 0 13.36328-6.00777 13.36328-13.36133v-2c0 7.35356-6.00973 13.36133-13.36328 13.36133h-197.273442c-7.353558 0-13.363282-6.00777-13.363282-13.36133z" opacity=".2" transform="translate(0 2)"/>
      <path d="m24.771484 52.986328c-2.842052 0-5.173828 2.331776-5.173828 5.173828v2c0-2.842052 2.331776-5.173828 5.173828-5.173828h89.142576c2.84205 0 5.17578 2.331776 5.17578 5.173828v-2c0-2.842052-2.33373-5.173828-5.17578-5.173828zm8.189454 48.767582c-7.353557 0-13.363282 6.00777-13.363282 13.36132v2c0-7.35355 6.009724-13.36132 13.363282-13.36132h197.273442c7.35354 0 13.36328 6.00777 13.36328 13.36132v-2c0-7.35355-6.00974-13.36132-13.36328-13.36132z" fill="#fff" opacity=".3" transform="translate(0 2)"/>
    </g>
    <path d="m66.879106 148.02696-17.361536 17.97303 34.401559-.33284z" fill="#fff"/>
    <path d="m82.849226 87.539089c4.997193 0 9.108456 4.111264 9.108456 9.108455v32.262896c0 4.99719-4.111263 9.10845-9.108456 9.10845h-32.262892c-4.997192 0-9.108455-4.11126-9.108455-9.10845v-32.262896c0-4.997191 4.111263-9.108455 9.108455-9.108455z" fill="#fff" fill-rule="evenodd"/>
    <path d="m149.07139 121.22247c4.9972 0 9.10846 4.11126 9.10846 9.10845v32.26289c0 4.9972-4.11126 9.10845-9.10846 9.10845h-32.26288c-4.9972 0-9.10845-4.11125-9.10845-9.10845v-32.26289c0-4.99719 4.11125-9.10845 9.10845-9.10845z" fill="#fff" fill-rule="evenodd"/>
    <path d="m215.33178 121.22247c4.99719 0 9.10846 4.11126 9.10846 9.10845v32.26289c0 4.9972-4.11127 9.10845-9.10846 9.10845h-32.26289c-4.99719 0-9.10845-4.11125-9.10845-9.10845v-32.26289c0-4.99719 4.11126-9.10845 9.10845-9.10845z" fill="#fff" fill-rule="evenodd"/>
    <path d="m50.585938 85.539062c-4.997192 0-9.107422 4.112184-9.107422 9.109376v32.261722c0 4.99719 4.11023 9.10937 9.107422 9.10937h32.263671c4.997193 0 9.107422-4.11218 9.107422-9.10937v-32.261722c0-4.997191-4.110229-9.109376-9.107422-9.109376zm66.222652 33.683598c-4.9972 0-9.10937 4.11023-9.10937 9.10742v32.26367c0 4.9972 4.11217 9.10937 9.10937 9.10937h32.26368c4.9972.00001 9.10742-4.11217 9.10742-9.10937v-32.26367c0-4.99719-4.11022-9.10742-9.10742-9.10742zm66.25977 0c-4.99719 0-9.10742 4.11023-9.10742 9.10742v32.26367c0 4.9972 4.11023 9.10937 9.10742 9.10937h32.26367c4.99719.00001 9.10742-4.11217 9.10742-9.10937v-32.26367c0-4.99719-4.11023-9.10742-9.10742-9.10742zm-116.189454 26.80468-17.361328 17.97266 34.402344-.33203z" fill="#faf8f6" transform="translate(0 2)"/>
    <path d="m50.585938 85.539062c-4.997192 0-9.107422 4.112184-9.107422 9.109376v2c0-4.997192 4.11023-9.109376 9.107422-9.109376h32.263671c4.997193.000001 9.107422 4.112184 9.107422 9.109376v-2c0-4.997192-4.110229-9.109375-9.107422-9.109376zm66.222652 33.683598c-4.9972 0-9.10937 4.11023-9.10937 9.10742v2c0-4.99719 4.11217-9.10742 9.10937-9.10742h32.26368c4.9972 0 9.10742 4.11023 9.10742 9.10742v-2c0-4.99719-4.11022-9.10742-9.10742-9.10742zm66.25977 0c-4.99719 0-9.10742 4.11023-9.10742 9.10742v2c0-4.99719 4.11023-9.10742 9.10742-9.10742h32.26367c4.99719 0 9.10742 4.11023 9.10742 9.10742v-2c0-4.99719-4.11023-9.10742-9.10742-9.10742zm-116.189454 26.80468-17.361328 17.97266 1.949219-.01953 15.412109-15.95313 15.126953 15.65821 1.914063-.01758z" fill="#fff" transform="translate(0 2)"/>
    <path d="m41.478516 124.91016v2c0 4.99719 4.11023 9.10937 9.107422 9.10937h32.263671c4.997193 0 9.107422-4.11218 9.107422-9.10937v-2c0 4.99719-4.110229 9.10937-9.107422 9.10937h-32.263671c-4.997192 0-9.107422-4.11218-9.107422-9.10937zm66.220704 33.68359v2c0 4.9972 4.11217 9.10937 9.10937 9.10937h32.26368c4.9972.00001 9.10742-4.11217 9.10742-9.10937v-2c0 4.9972-4.11022 9.10939-9.10742 9.10937h-32.26368c-4.9972 0-9.10937-4.11217-9.10937-9.10937zm66.26172 0v2c0 4.9972 4.11023 9.10937 9.10742 9.10937h32.26367c4.99719.00001 9.10742-4.11217 9.10742-9.10937v-2c0 4.9972-4.11023 9.10939-9.10742 9.10937h-32.26367c-4.99719 0-9.10742-4.11217-9.10742-9.10937zm-91.955081 3.0918-30.539062.29492-1.949219 2.01953 34.402344-.33203z" opacity=".2" transform="translate(0 2)"/>
  </g>
</svg>

<svg xmlns="http://www.w3.org/2000/svg" xmlns:xlink="http://www.w3.org/1999/xlink" width="256" height="256" version="1.0">
 <defs>
  <linearGradient id="linearGradient5048">
   <stop style="stop-opacity:0" id="stop5050" offset="0"/>
   <stop id="stop5056" offset=".5"/>
   <stop style="stop-opacity:0" id="stop5052" offset="1"/>
  </linearGradient>
  <linearGradient id="linearGradient3832">
   <stop style="stop-color:#ffffff" id="stop3834" offset="0"/>
   <stop style="stop-color:#e0e0e0" id="stop3836" offset="1"/>
  </linearGradient>
  <linearGradient id="linearGradient1428">
   <stop style="stop-color:#3465a4" id="stop1430" offset="0"/>
   <stop style="stop-color:#729fcf" id="stop1432" offset="1"/>
  </linearGradient>
  <linearGradient id="linearGradient2260" x1="26.87" x2="26.87" y1="6.634" y2="44.465" gradientTransform="matrix(4.5546815,0,0,1.6328578,-238.58149,104.12016)" gradientUnits="userSpaceOnUse" xlink:href="#linearGradient1428"/>
  <filter style="color-interpolation-filters:sRGB" id="filter957" width="1.019" height="1.032" x="-.01" y="-.02">
   <feGaussianBlur id="feGaussianBlur959" stdDeviation=".911"/>
  </filter>
  <filter style="color-interpolation-filters:sRGB" id="filter971" width="1.077" height="1.128" x="-.04" y="-.06">
   <feGaussianBlur id="feGaussianBlur973" stdDeviation="3.645"/>
  </filter>
 </defs>
 <g id="layer1" transform="translate(0,-2)">
  <path style="opacity:0.1;fill:#0f0f0f;fill-rule:evenodd;filter:url(#filter971)" d="M 23.005859 51.541016 C 20.035044 51.541016 17.597656 54.297796 17.597656 57.65625 L 17.597656 67.830078 C 17.597656 71.188532 20.035044 73.945312 23.005859 73.945312 L 116.1875 73.945312 C 119.15831 73.945313 121.59766 71.188532 121.59766 67.830078 L 121.59766 57.65625 C 121.59766 54.297796 119.15831 51.541016 116.1875 51.541016 L 23.005859 51.541016 z M 49.220703 84.019531 C 43.875033 84.019531 39.478516 88.41605 39.478516 93.761719 L 39.478516 100.30859 L 31.199219 100.30859 C 23.714348 100.30859 17.597656 106.56266 17.597656 114.2168 L 17.597656 174.0918 C 17.597656 181.74595 23.714348 188 31.199219 188 L 231.99609 188 C 239.48097 188 245.59766 181.74595 245.59766 174.0918 L 245.59766 114.2168 C 245.59766 106.56266 239.48097 100.30859 231.99609 100.30859 L 93.478516 100.30859 L 93.478516 93.761719 C 93.478516 88.41605 89.080046 84.019531 83.734375 84.019531 L 49.220703 84.019531 z" transform="translate(0,2)"/>
  <path d="M 23.005859 51.541016 C 20.035044 51.541016 17.597656 54.297796 17.597656 57.65625 L 17.597656 67.830078 C 17.597656 71.188532 20.035044 73.945312 23.005859 73.945312 L 116.1875 73.945312 C 119.15831 73.945313 121.59766 71.188532 121.59766 67.830078 L 121.59766 57.65625 C 121.59766 54.297796 119.15831 51.541016 116.1875 51.541016 L 23.005859 51.541016 z M 49.220703 84.019531 C 43.875033 84.019531 39.478516 88.41605 39.478516 93.761719 L 39.478516 100.30859 L 31.199219 100.30859 C 23.714348 100.30859 17.597656 106.56266 17.597656 114.2168 L 17.597656 174.0918 C 17.597656 181.74595 23.714348 188 31.199219 188 L 231.99609 188 C 239.48097 188 245.59766 181.74595 245.59766 174.0918 L 245.59766 114.2168 C 245.59766 106.56266 239.48097 100.30859 231.99609 100.30859 L 93.478516 100.30859 L 93.478516 93.761719 C 93.478516 88.41605 89.080046 84.019531 83.734375 84.019531 L 49.220703 84.019531 z" transform="translate(0,2)" style="opacity:0.1;fill:#0f0f0f;fill-rule:evenodd;filter:url(#filter957)"/>
  <path style="opacity:0.1;fill:#0f0f0f;fill-rule:evenodd" d="M 23.005859 51.541016 C 20.035044 51.541016 17.597656 54.297796 17.597656 57.65625 L 17.597656 67.830078 C 17.597656 71.188532 20.035044 73.945312 23.005859 73.945312 L 116.1875 73.945312 C 119.15831 73.945313 121.59766 71.188532 121.59766 67.830078 L 121.59766 57.65625 C 121.59766 54.297796 119.15831 51.541016 116.1875 51.541016 L 23.005859 51.541016 z M 49.220703 84.019531 C 43.875033 84.019531 39.478516 88.41605 39.478516 93.761719 L 39.478516 100.30859 L 31.199219 100.30859 C 23.714348 100.30859 17.597656 106.56266 17.597656 114.2168 L 17.597656 174.0918 C 17.597656 181.74595 23.714348 188 31.199219 188 L 231.99609 188 C 239.48097 188 245.59766 181.74595 245.59766 174.0918 L 245.59766 114.2168 C 245.59766 106.56266 239.48097 100.30859 231.99609 100.30859 L 93.478516 100.30859 L 93.478516 93.761719 C 93.478516 88.41605 89.080046 84.019531 83.734375 84.019531 L 49.220703 84.019531 z" transform="translate(0,2)"/>
  <path style="fill:#1a7fd4;fill-rule:evenodd" d="m 230.23516,103.75296 c 7.35356,0 13.36182,6.00827 13.36182,13.36182 v 57.5234 c 0,7.35356 -6.00826,13.36182 -13.36182,13.36182 H 32.960854 c -7.353557,0 -13.363876,-6.00826 -13.363876,-13.36182 v -57.5234 c 0,-7.35355 6.010319,-13.36182 13.363876,-13.36182 z"/>
  <path style="fill:#1a7fd4;fill-rule:evenodd" d="m 113.91485,54.985633 c 2.84205,0 5.17451,2.332458 5.17451,5.17451 V 68.7699 c 0,2.842053 -2.33246,5.17451 -5.17451,5.17451 H 24.77151 c -2.842052,0 -5.17451,-2.332457 -5.17451,-5.17451 v -8.609757 c 0,-2.842052 2.332458,-5.17451 5.17451,-5.17451 z"/>
  <path style="fill:#faf8f6;fill-rule:evenodd" d="M 41.652344 59.335938 L 26.935547 59.339844 L 26.935547 59.367188 A 3.69284 2.8361989 0 0 0 23.689453 62.177734 A 3.69284 2.8361989 0 0 0 26.935547 64.992188 L 26.935547 65.009766 L 27.224609 65.009766 A 3.69284 2.8361989 0 0 0 27.382812 65.015625 A 3.69284 2.8361989 0 0 0 27.580078 65.009766 L 41.652344 65.007812 L 41.652344 59.335938 z M 48.056641 59.505859 A 3.69284 2.8531822 0 0 0 47.925781 59.509766 C 47.925611 59.509833 47.914502 59.509774 47.914062 59.509766 A 3.69284 2.8531822 0 0 0 47.695312 59.521484 L 47.695312 59.513672 C 47.667012 59.515272 47.515905 59.529267 47.515625 59.529297 C 47.515596 59.5293 47.457014 59.541085 47.427734 59.546875 C 47.411524 59.549975 47.398453 59.550487 47.376953 59.554688 A 3.69284 2.8531822 0 0 0 44.363281 62.359375 A 3.69284 2.8531822 0 0 0 47.59375 65.1875 C 47.593877 65.187586 47.593613 65.197266 47.59375 65.197266 C 47.66934 65.204166 47.692792 65.204078 47.714844 65.205078 C 47.803034 65.209278 47.802144 65.208684 47.820312 65.208984 C 47.856653 65.209584 47.884418 65.208707 47.923828 65.208984 C 47.945318 65.209134 47.991038 65.208781 48.017578 65.208984 A 3.69284 2.8531822 0 0 0 48.056641 65.212891 A 3.69284 2.8531822 0 0 0 48.099609 65.212891 C 48.154939 65.213271 48.191434 65.212635 48.263672 65.212891 C 53.539999 65.228731 105.25525 65.208984 109.45898 65.208984 L 109.45898 59.509766 C 105.23845 59.509766 53.430669 59.527089 48.28125 59.511719 C 48.24447 59.511609 48.231209 59.511899 48.199219 59.511719 A 3.69284 2.8531822 0 0 0 48.056641 59.505859 z" transform="translate(0,2)"/>
  <path style="opacity:0.2;fill:#130909;fill-rule:evenodd" d="M 23.931641 61.175781 A 3.69284 2.8361989 0 0 0 23.689453 62.177734 A 3.69284 2.8361989 0 0 0 26.935547 64.992188 L 26.935547 65.009766 L 27.224609 65.009766 A 3.69284 2.8361989 0 0 0 27.382812 65.015625 A 3.69284 2.8361989 0 0 0 27.580078 65.009766 L 41.652344 65.007812 L 41.652344 63.007812 L 27.580078 63.009766 A 3.69284 2.8361989 0 0 1 27.382812 63.015625 A 3.69284 2.8361989 0 0 1 27.224609 63.009766 L 26.935547 63.009766 L 26.935547 62.992188 A 3.69284 2.8361989 0 0 1 23.931641 61.175781 z M 44.601562 61.357422 A 3.69284 2.8531822 0 0 0 44.363281 62.359375 A 3.69284 2.8531822 0 0 0 47.59375 65.1875 C 47.593877 65.187586 47.593613 65.197266 47.59375 65.197266 C 47.66934 65.204166 47.692792 65.204078 47.714844 65.205078 C 47.803034 65.209278 47.802144 65.208684 47.820312 65.208984 C 47.856654 65.209584 47.884418 65.208707 47.923828 65.208984 C 47.945318 65.209134 47.991038 65.208781 48.017578 65.208984 A 3.69284 2.8531822 0 0 0 48.056641 65.212891 A 3.69284 2.8531822 0 0 0 48.099609 65.212891 C 48.154939 65.213271 48.191434 65.212635 48.263672 65.212891 C 53.539999 65.228731 105.25525 65.208984 109.45898 65.208984 L 109.45898 63.208984 C 105.25525 63.208984 53.539999 63.228731 48.263672 63.212891 C 48.191439 63.212635 48.154939 63.213271 48.099609 63.212891 A 3.69284 2.8531822 0 0 1 48.056641 63.212891 A 3.69284 2.8531822 0 0 1 48.017578 63.208984 C 47.991038 63.208781 47.945318 63.209134 47.923828 63.208984 C 47.884422 63.208707 47.856653 63.209584 47.820312 63.208984 C 47.802144 63.208684 47.803034 63.209278 47.714844 63.205078 C 47.69279 63.204078 47.66934 63.204166 47.59375 63.197266 C 47.593613 63.197266 47.593877 63.187586 47.59375 63.1875 A 3.69284 2.8531822 0 0 1 44.601562 61.357422 z" transform="translate(0,2)"/>
  <path style="opacity:0.2;fill-rule:evenodd" d="M 19.597656 64.769531 L 19.597656 66.769531 C 19.597656 69.611584 21.929432 71.945312 24.771484 71.945312 L 113.91406 71.945312 C 116.75611 71.945312 119.08984 69.611584 119.08984 66.769531 L 119.08984 64.769531 C 119.08984 67.611584 116.75611 69.945312 113.91406 69.945312 L 24.771484 69.945312 C 21.929432 69.945312 19.597656 67.611584 19.597656 64.769531 z M 19.597656 170.63867 L 19.597656 172.63867 C 19.597656 179.99223 25.60738 186 32.960938 186 L 230.23438 186 C 237.58793 186 243.59766 179.99223 243.59766 172.63867 L 243.59766 170.63867 C 243.59766 177.99223 237.58793 184 230.23438 184 L 32.960938 184 C 25.60738 184 19.597656 177.99223 19.597656 170.63867 z" transform="translate(0,2)"/>
  <path style="opacity:0.3;fill:#ffffff;fill-rule:evenodd" d="M 24.771484 52.986328 C 21.929432 52.986328 19.597656 55.318104 19.597656 58.160156 L 19.597656 60.160156 C 19.597656 57.318104 21.929432 54.986328 24.771484 54.986328 L 113.91406 54.986328 C 116.75611 54.986328 119.08984 57.318104 119.08984 60.160156 L 119.08984 58.160156 C 119.08984 55.318104 116.75611 52.986328 113.91406 52.986328 L 24.771484 52.986328 z M 32.960938 101.75391 C 25.607381 101.75391 19.597656 107.76168 19.597656 115.11523 L 19.597656 117.11523 C 19.597656 109.76168 25.60738 103.75391 32.960938 103.75391 L 230.23438 103.75391 C 237.58792 103.75391 243.59766 109.76168 243.59766 117.11523 L 243.59766 115.11523 C 243.59766 107.76168 237.58792 101.75391 230.23438 101.75391 L 32.960938 101.75391 z" transform="translate(0,2)"/>
  <path style="fill:#ffffff" d="M 66.879106,148.02696 49.51757,165.99999 83.919129,165.66715 Z"/>
  <path style="fill:#ffffff;fill-rule:evenodd" d="m 82.849226,87.539089 c 4.997193,0 9.108456,4.111264 9.108456,9.108455 v 32.262896 c 0,4.99719 -4.111263,9.10845 -9.108456,9.10845 H 50.586334 c -4.997192,0 -9.108455,-4.11126 -9.108455,-9.10845 V 96.647544 c 0,-4.997191 4.111263,-9.108455 9.108455,-9.108455 z"/>
  <path d="m 149.07139,121.22247 c 4.9972,0 9.10846,4.11126 9.10846,9.10845 v 32.26289 c 0,4.9972 -4.11126,9.10845 -9.10846,9.10845 h -32.26288 c -4.9972,0 -9.10845,-4.11125 -9.10845,-9.10845 v -32.26289 c 0,-4.99719 4.11125,-9.10845 9.10845,-9.10845 z" style="fill:#ffffff;fill-rule:evenodd"/>
  <path style="fill:#ffffff;fill-rule:evenodd" d="m 215.33178,121.22247 c 4.99719,0 9.10846,4.11126 9.10846,9.10845 v 32.26289 c 0,4.9972 -4.11127,9.10845 -9.10846,9.10845 h -32.26289 c -4.99719,0 -9.10845,-4.11125 -9.10845,-9.10845 v -32.26289 c 0,-4.99719 4.11126,-9.10845 9.10845,-9.10845 z"/>
  <path style="fill:#faf8f6" d="M 50.585938 85.539062 C 45.588746 85.539062 41.478516 89.651246 41.478516 94.648438 L 41.478516 126.91016 C 41.478516 131.90735 45.588746 136.01953 50.585938 136.01953 L 82.849609 136.01953 C 87.846802 136.01953 91.957031 131.90735 91.957031 126.91016 L 91.957031 94.648438 C 91.957031 89.651247 87.846802 85.539062 82.849609 85.539062 L 50.585938 85.539062 z M 116.80859 119.22266 C 111.81139 119.22266 107.69922 123.33289 107.69922 128.33008 L 107.69922 160.59375 C 107.69922 165.59095 111.81139 169.70312 116.80859 169.70312 L 149.07227 169.70312 C 154.06947 169.70313 158.17969 165.59095 158.17969 160.59375 L 158.17969 128.33008 C 158.17969 123.33289 154.06947 119.22266 149.07227 119.22266 L 116.80859 119.22266 z M 183.06836 119.22266 C 178.07117 119.22266 173.96094 123.33289 173.96094 128.33008 L 173.96094 160.59375 C 173.96094 165.59095 178.07117 169.70312 183.06836 169.70312 L 215.33203 169.70312 C 220.32922 169.70313 224.43945 165.59095 224.43945 160.59375 L 224.43945 128.33008 C 224.43945 123.33289 220.32922 119.22266 215.33203 119.22266 L 183.06836 119.22266 z M 66.878906 146.02734 L 49.517578 164 L 83.919922 163.66797 L 66.878906 146.02734 z" transform="translate(0,2)"/>
  <path style="fill:#ffffff" d="M 50.585938 85.539062 C 45.588746 85.539062 41.478516 89.651246 41.478516 94.648438 L 41.478516 96.648438 C 41.478516 91.651246 45.588746 87.539062 50.585938 87.539062 L 82.849609 87.539062 C 87.846802 87.539063 91.957031 91.651246 91.957031 96.648438 L 91.957031 94.648438 C 91.957031 89.651246 87.846802 85.539063 82.849609 85.539062 L 50.585938 85.539062 z M 116.80859 119.22266 C 111.81139 119.22266 107.69922 123.33289 107.69922 128.33008 L 107.69922 130.33008 C 107.69922 125.33289 111.81139 121.22266 116.80859 121.22266 L 149.07227 121.22266 C 154.06947 121.22266 158.17969 125.33289 158.17969 130.33008 L 158.17969 128.33008 C 158.17969 123.33289 154.06947 119.22266 149.07227 119.22266 L 116.80859 119.22266 z M 183.06836 119.22266 C 178.07117 119.22266 173.96094 123.33289 173.96094 128.33008 L 173.96094 130.33008 C 173.96094 125.33289 178.07117 121.22266 183.06836 121.22266 L 215.33203 121.22266 C 220.32922 121.22266 224.43945 125.33289 224.43945 130.33008 L 224.43945 128.33008 C 224.43945 123.33289 220.32922 119.22266 215.33203 119.22266 L 183.06836 119.22266 z M 66.878906 146.02734 L 49.517578 164 L 51.466797 163.98047 L 66.878906 148.02734 L 82.005859 163.68555 L 83.919922 163.66797 L 66.878906 146.02734 z" transform="translate(0,2)"/>
  <path style="opacity:0.2" d="M 41.478516 124.91016 L 41.478516 126.91016 C 41.478516 131.90735 45.588746 136.01953 50.585938 136.01953 L 82.849609 136.01953 C 87.846802 136.01953 91.957031 131.90735 91.957031 126.91016 L 91.957031 124.91016 C 91.957031 129.90735 87.846802 134.01953 82.849609 134.01953 L 50.585938 134.01953 C 45.588746 134.01953 41.478516 129.90735 41.478516 124.91016 z M 107.69922 158.59375 L 107.69922 160.59375 C 107.69922 165.59095 111.81139 169.70312 116.80859 169.70312 L 149.07227 169.70312 C 154.06947 169.70313 158.17969 165.59095 158.17969 160.59375 L 158.17969 158.59375 C 158.17969 163.59095 154.06947 167.70314 149.07227 167.70312 L 116.80859 167.70312 C 111.81139 167.70312 107.69922 163.59095 107.69922 158.59375 z M 173.96094 158.59375 L 173.96094 160.59375 C 173.96094 165.59095 178.07117 169.70312 183.06836 169.70312 L 215.33203 169.70312 C 220.32922 169.70313 224.43945 165.59095 224.43945 160.59375 L 224.43945 158.59375 C 224.43945 163.59095 220.32922 167.70314 215.33203 167.70312 L 183.06836 167.70312 C 178.07117 167.70312 173.96094 163.59095 173.96094 158.59375 z M 82.005859 161.68555 L 51.466797 161.98047 L 49.517578 164 L 83.919922 163.66797 L 82.005859 161.68555 z" transform="translate(0,2)"/>
 </g>
</svg>
